X:29
T:Cristina Pato's 2 voice
R:jig
M:6/8
L:1/8
K:Gmaj
V:1
"G"GAB "G"dBd |"Am"c2A "Am"cAF|"D"DFA "Am"cAc|"G"B2 B "G"DBG|
"G"DGB "G"dBd |"Am"c2A "Am"cAF|"D"DFA "Am"cAF|1 "G"~G3 "G"BdB:|2 "G"~G3 "G"G2 A||
"G"BAB "G"GAB |"C"cBc "Em"EFG|("G"GA){B}A "Am"{G}AGA |"G"BdB "G"G2A|
"G"BAB "G"GAB |"C"cBc "Em"EFG|("G"GA){B}A "Bm"DEF |1 "G"~G3 "G"G2 A:|2 "G"~G3 "G"BdB||
V:2
EFG BGB |A2F AFD|FDF AFA|G2 G BGE|
GEG BGB |A2F AFD|B,DF AFD|1 ~G3 GdG:|2 ~E3 E2 F||
GFG EFG |AGA CDE|(EF){G}F {E}FEF |GBG E2F|
GFG EFG |AGA CDE|(EF){G}F B,CD |1 ~E3 E2 F:|2 ~E3 GBG||
